storage/app/icons/phosphoricons/regular/truck-trailer.svg

<svg xmlns="http://www.w3.org/2000/svg" fill="currentColor" viewBox="0 0 256 256"><path d="M224 96.8V96a56.06 56.06 0 0 0-56-56h-8a16 16 0 0 0-16 16v120h-16V72a8 8 0 0 0-8-8H16A16 16 0 0 0 0 80v104a32 32 0 0 0 56 21.13A32 32 0 0 0 111 192h82a32 32 0 0 0 63-8v-48a40.07 40.07 0 0 0-32-39.2M160 56h8a40 40 0 0 1 40 40v8a8 8 0 0 0 8 8 24 24 0 0 1 24 24v20.31a31.7 31.7 0 0 0-16-4.31 32.06 32.06 0 0 0-31 24h-33Zm-48 24v96h-1a32 32 0 0 0-55-13.13 31.9 31.9 0 0 0-40-6.56V80ZM32 200a16 16 0 1 1 16-16 16 16 0 0 1-16 16m48 0a16 16 0 1 1 16-16 16 16 0 0 1-16 16m144 0a16 16 0 1 1 16-16 16 16 0 0 1-16 16"/></svg>

<svg xmlns="http://www.w3.org/2000/svg" viewBox="0 0 256 256" fill="currentColor"><path d="M224,96.8V96a56.06,56.06,0,0,0-56-56h-8a16,16,0,0,0-16,16V176H128V72a8,8,0,0,0-8-8H16A16,16,0,0,0,0,80V184a32,32,0,0,0,56,21.13A32,32,0,0,0,111,192h82a32,32,0,0,0,63-8V136A40.07,40.07,0,0,0,224,96.8ZM160,56h8a40,40,0,0,1,40,40v8a8,8,0,0,0,8,8,24,24,0,0,1,24,24v20.31A31.71,31.71,0,0,0,224,152a32.06,32.06,0,0,0-31,24H160ZM112,80v96h-1a32,32,0,0,0-55-13.13,31.9,31.9,0,0,0-40-6.56V80ZM32,200a16,16,0,1,1,16-16A16,16,0,0,1,32,200Zm48,0a16,16,0,1,1,16-16A16,16,0,0,1,80,200Zm144,0a16,16,0,1,1,16-16A16,16,0,0,1,224,200Z"/></svg>
